!!!COM: Music21
!!!OTL: Alalá
!!!OMV: pezas_alalas_alala-13_alala-partitura.musicxml
**kern
*I"Bagpipes
*I'Bag
*clefG^2
*k[]
*M3/4
=1
!LO:TX:a:t=Andante
*MM96
!LO:TX:a:t=[quarter]=96
2r
4gg
=
4ccc
4ccc
4ccc
=
2bb
4aa
=
2bb
8ggL
8aaJ
=
2bb
4gg
=
4aa
4aa
4aa
=
2gg
4ff
=
2.ee
=
[2.ee
=||
*M2/4
4ee]
4gg
!!linebreak:original
=||
*M3/4
4ccc
4ccc
4ccc
=
2bb
4aa
=
2bb
8ggL
8aaJ
=
2.bb
=
4ccc
4bb
4aa
=
2gg
4aa
=
2ff
4gg
=
2.ee
=
[2.ee
=||
*M2/4
4ee]
4gg
=||
*M3/4
4ccc
4ccc
4ccc
!!linebreak:original
=
2bb
4aa
=
2bb
8ggL
8aaJ
=
2bb
4gg
=
4aa
4aa
4aa
=
2gg
4ff
=
[2.ee
=
2.ee_
=
2.ee]
=
*-
